assets/images/icons/key-info-02.svg

<svg width="32" height="32" viewBox="0 0 32 32" fill="none" xmlns="http://www.w3.org/2000/svg">
<g clip-path="url(#clip0_211_3629)">
<path opacity="0.1" d="M0.223155 23.1618C-0.0589054 20.752 -0.098086 18.3874 0.248062 16.248C0.673696 13.6174 1.78493 10.6909 2.99894 8.07362C5.37163 2.95839 9.61911 1.16885 14.7912 0.362065C22.0007 -0.762522 31.9372 0.362091 32 9.08714C31.6383 12.2073 29.2517 20.8815 21.1951 21.5434C18.5313 21.7622 17.5348 24.4378 16.3612 27.5006C13.2729 35.5602 1.25575 31.9835 0.223155 23.1618Z" fill="#7FB51F"/>
<path d="M7.52748 11.5H24.4734C24.68 11.5 24.8769 11.4149 25.0186 11.2649C25.1604 11.1149 25.2339 10.9131 25.2222 10.7069L25.2129 10.5122C25.091 8.54275 23.4447 7 21.4644 7H20.5006V6.25C20.5006 5.836 20.1646 5.5 19.7506 5.5C19.3366 5.5 19.0006 5.836 19.0006 6.25V7H13.0006V6.25C13.0006 5.836 12.6646 5.5 12.2506 5.5C11.8366 5.5 11.5006 5.836 11.5006 6.25V7H10.5369C8.55648 7 6.90986 8.54313 6.78798 10.5138L6.77861 10.7072C6.76661 10.9131 6.84048 11.1149 6.98186 11.2653C7.12323 11.4156 7.32123 11.5 7.52748 11.5Z" fill="#7FB51F"/>
<path d="M25.3387 13.7313C25.329 13.3244 24.996 13 24.5891 13H7.41034C7.00346 13 6.67084 13.3244 6.66034 13.7313C6.59321 16.4181 6.64084 19.0956 6.80209 21.6903C6.91909 23.5728 8.42696 25.0803 10.3087 25.1973C12.1972 25.3158 14.0985 25.375 15.9997 25.375C17.9006 25.375 19.8026 25.3158 21.69 25.1969C23.5725 25.0799 25.08 23.572 25.1973 21.6899C25.3586 19.0956 25.4062 16.4178 25.3387 13.7313ZM19.7497 17.5C19.1283 17.5 18.6247 16.9964 18.6247 16.375C18.6247 15.7536 19.1283 15.25 19.7497 15.25C20.3711 15.25 20.8747 15.7536 20.8747 16.375C20.8747 16.9964 20.3711 17.5 19.7497 17.5ZM20.8747 20.125C20.8747 20.7464 20.3711 21.25 19.7497 21.25C19.1283 21.25 18.6247 20.7464 18.6247 20.125C18.6247 19.5036 19.1283 19 19.7497 19C20.3711 19 20.8747 19.5036 20.8747 20.125ZM12.2497 19C12.8711 19 13.3747 19.5036 13.3747 20.125C13.3747 20.7464 12.8711 21.25 12.2497 21.25C11.6283 21.25 11.1247 20.7464 11.1247 20.125C11.1247 19.5036 11.6283 19 12.2497 19ZM11.1247 16.375C11.1247 15.7536 11.6283 15.25 12.2497 15.25C12.8711 15.25 13.3747 15.7536 13.3747 16.375C13.3747 16.9964 12.8711 17.5 12.2497 17.5C11.6283 17.5 11.1247 16.9964 11.1247 16.375ZM14.8747 20.125C14.8747 19.5036 15.3783 19 15.9997 19C16.6211 19 17.1247 19.5036 17.1247 20.125C17.1247 20.7464 16.6211 21.25 15.9997 21.25C15.3783 21.25 14.8747 20.7464 14.8747 20.125ZM15.9997 17.5C15.3783 17.5 14.8747 16.9964 14.8747 16.375C14.8747 15.7536 15.3783 15.25 15.9997 15.25C16.6211 15.25 17.1247 15.7536 17.1247 16.375C17.1247 16.9964 16.6211 17.5 15.9997 17.5Z" fill="#7FB51F"/>
</g>
<defs>
<clipPath id="clip0_211_3629">
<rect width="32" height="32" fill="white"/>
</clipPath>
</defs>
</svg>

<svg xmlns="http://www.w3.org/2000/svg" width="32" height="32" fill="none"><g fill="#7FB51F" clip-path="url(#a)"><path d="M.223 23.162c-.282-2.41-.321-4.775.025-6.914.426-2.63 1.537-5.557 2.75-8.174C5.373 2.958 9.62 1.169 14.792.362 22.001-.763 31.937.362 32 9.087c-.362 3.12-2.748 11.795-10.805 12.456-2.664.22-3.66 2.895-4.834 5.958-3.088 8.06-15.105 4.482-16.138-4.34" opacity=".1"/><path d="M7.527 11.5h16.946a.75.75 0 0 0 .75-.793l-.01-.195A3.756 3.756 0 0 0 21.464 7h-.963v-.75a.75.75 0 0 0-1.5 0V7h-6v-.75a.75.75 0 0 0-1.5 0V7h-.964a3.757 3.757 0 0 0-3.749 3.514l-.01.193a.75.75 0 0 0 .75.793m17.811 2.231a.75.75 0 0 0-.75-.731H7.41a.75.75 0 0 0-.75.731 92 92 0 0 0 .142 7.96 3.75 3.75 0 0 0 3.507 3.506 91 91 0 0 0 11.381 0 3.75 3.75 0 0 0 3.507-3.507c.162-2.594.21-5.272.142-7.959m-5.59 3.769a1.125 1.125 0 1 1 0-2.25 1.125 1.125 0 0 1 0 2.25m1.126 2.625a1.125 1.125 0 1 1-2.25 0 1.125 1.125 0 0 1 2.25 0M12.25 19a1.125 1.125 0 1 1 0 2.25 1.125 1.125 0 0 1 0-2.25m-1.125-2.625a1.125 1.125 0 1 1 2.25 0 1.125 1.125 0 0 1-2.25 0m3.75 3.75a1.125 1.125 0 1 1 2.25 0 1.125 1.125 0 0 1-2.25 0M16 17.5a1.125 1.125 0 1 1 0-2.25 1.125 1.125 0 0 1 0 2.25"/></g><defs><clipPath id="a"><path fill="#fff" d="M0 0h32v32H0z"/></clipPath></defs></svg>
